Quickit/src/img/icons/book.svg

<svg width="17" height="14" viewBox="0 0 17 14" fill="none" xmlns="http://www.w3.org/2000/svg">
<path fill-rule="evenodd" clip-rule="evenodd" d="M1.66667 2.33854V11.3604C2.59613 11.0131 3.58371 10.8333 4.58333 10.8333C5.58295 10.8333 6.57054 11.0131 7.5 11.3604V2.33854C6.59312 1.89731 5.59595 1.66667 4.58333 1.66667C3.57072 1.66667 2.57354 1.89731 1.66667 2.33854ZM9.16667 2.33854V11.3604C10.0961 11.0131 11.0837 10.8333 12.0833 10.8333C13.083 10.8333 14.0705 11.0131 15 11.3604V2.33854C14.0931 1.89731 13.0959 1.66667 12.0833 1.66667C11.0707 1.66667 10.0735 1.89731 9.16667 2.33854ZM8.33333 0.891427C7.17215 0.306295 5.88799 0 4.58333 0C3.12053 0 1.68349 0.385052 0.416667 1.11645C0.158832 1.26532 0 1.54042 0 1.83814V12.6715C0 12.9692 0.158832 13.2443 0.416667 13.3932C0.674501 13.542 0.992166 13.542 1.25 13.3932C2.26346 12.808 3.41309 12.5 4.58333 12.5C5.75358 12.5 6.90321 12.808 7.91667 13.3932C8.1745 13.542 8.49217 13.542 8.75 13.3932C9.76346 12.808 10.9131 12.5 12.0833 12.5C13.2536 12.5 14.4032 12.808 15.4167 13.3932C15.6745 13.542 15.9922 13.542 16.25 13.3932C16.5078 13.2443 16.6667 12.9692 16.6667 12.6715V1.83814C16.6667 1.54042 16.5078 1.26532 16.25 1.11645C14.9832 0.385052 13.5461 0 12.0833 0C10.7787 0 9.49452 0.306295 8.33333 0.891427Z" fill="#205BF1"/>
</svg>

<svg xmlns="http://www.w3.org/2000/svg" width="17" height="14" fill="none" xmlns:v="https://vecta.io/nano"><path fill-rule="evenodd" d="M1.667 2.339v9.022c.929-.347 1.917-.527 2.917-.527s1.987.18 2.917.527V2.339c-.907-.441-1.904-.672-2.917-.672s-2.01.231-2.917.672zm7.5 0v9.022a8.33 8.33 0 0 1 2.917-.527c1 0 1.987.18 2.917.527V2.339c-.907-.441-1.904-.672-2.917-.672s-2.01.231-2.917.672zM8.333.891C7.172.306 5.888 0 4.583 0 3.121 0 1.683.385.417 1.116.159 1.265 0 1.54 0 1.838v10.833c0 .298.159.573.417.722s.575.149.833 0c1.013-.585 2.163-.893 3.333-.893s2.32.308 3.333.893c.258.149.575.149.833 0 1.013-.585 2.163-.893 3.333-.893s2.32.308 3.333.893c.258.149.575.149.833 0s.417-.424.417-.722V1.838c0-.298-.159-.573-.417-.722C14.983.385 13.546 0 12.083 0c-1.305 0-2.589.306-3.75.891z" fill="#205bf1"/></svg>
